X:1
T:Richard Dwyer's Jig
M:6/8
L:1/8
R:jig
F:Catskills+Tunes.txt
K:Dmaj
D:Willie Kelly (Tue AM)
EAB =cBc | Adc d2 e | fag efd | ABG FED |\
ded afd | Bef gag | f2 d ecA | GEA D3 :|
ded ((3 fga) f | afd Adf | dcd AFA | =cBc EFA |\
~d3 ((3 fga) f | afd Adf | ~d3 AFA  | GEA D2 A :|
~d3 ~a3 | gfg ~a3 | ~d3 aba | gef gfe |\
def ecA | GAB AFG | Ade dcA | GEA D2 A |
dBd ~a3 | gfg ~a3 | ~d3 aba | gef gfe |\
def ecA | GAB AFG | Ace Ace | AGE D2 A ||
